images/location.svg

<svg width="24" height="30" viewBox="0 0 24 30" fill="none" xmlns="http://www.w3.org/2000/svg">
<path d="M12 17.9998C15.3089 17.9998 17.9999 15.3089 17.9999 11.9999C17.9999 8.69092 15.3089 5.99995 12 5.99995C8.69101 5.99995 6.00004 8.69092 6.00004 11.9999C6.00004 15.3089 8.69101 17.9998 12 17.9998ZM12 8.99992C13.6545 8.99992 14.9999 10.3454 14.9999 11.9999C14.9999 13.6544 13.6545 14.9999 12 14.9999C10.3455 14.9999 9.00001 13.6544 9.00001 11.9999C9.00001 10.3454 10.3455 8.99992 12 8.99992ZM11.13 29.7207C11.3839 29.902 11.688 29.9994 12 29.9994C12.312 29.9994 12.6161 29.902 12.87 29.7207C13.326 29.3982 24.0434 21.6598 23.9999 11.9999C23.9999 5.38344 18.6164 0 12 0C5.38357 0 0.000132055 5.38344 0.000132055 11.9924C-0.0433675 21.6598 10.674 29.3982 11.13 29.7207ZM12 2.99997C16.9634 2.99997 20.9999 7.03642 20.9999 12.0074C21.0314 18.6643 14.418 24.6417 12 26.6022C9.58353 24.6402 2.9686 18.6613 3.0001 11.9999C3.0001 7.03642 7.03655 2.99997 12 2.99997Z" fill="#1BA0AB"/>
<path d="M12 17.9998C15.3089 17.9998 17.9999 15.3089 17.9999 11.9999C17.9999 8.69092 15.3089 5.99995 12 5.99995C8.69101 5.99995 6.00004 8.69092 6.00004 11.9999C6.00004 15.3089 8.69101 17.9998 12 17.9998ZM12 8.99992C13.6545 8.99992 14.9999 10.3454 14.9999 11.9999C14.9999 13.6544 13.6545 14.9999 12 14.9999C10.3455 14.9999 9.00001 13.6544 9.00001 11.9999C9.00001 10.3454 10.3455 8.99992 12 8.99992ZM11.13 29.7207C11.3839 29.902 11.688 29.9994 12 29.9994C12.312 29.9994 12.6161 29.902 12.87 29.7207C13.326 29.3982 24.0434 21.6598 23.9999 11.9999C23.9999 5.38344 18.6164 0 12 0C5.38357 0 0.000132055 5.38344 0.000132055 11.9924C-0.0433675 21.6598 10.674 29.3982 11.13 29.7207ZM12 2.99997C16.9634 2.99997 20.9999 7.03642 20.9999 12.0074C21.0314 18.6643 14.418 24.6417 12 26.6022C9.58353 24.6402 2.9686 18.6613 3.0001 11.9999C3.0001 7.03642 7.03655 2.99997 12 2.99997Z" fill="#1BA0AB"/>
</svg>

<svg width="24" height="30" fill="none" xmlns="http://www.w3.org/2000/svg"><path d="M12 18c3.309 0 6-2.691 6-6 0-3.31-2.691-6-6-6s-6 2.69-6 6c0 3.309 2.691 6 6 6Zm0-9c1.655 0 3 1.345 3 3 0 1.654-1.345 3-3 3s-3-1.346-3-3c0-1.655 1.345-3 3-3Zm-.87 20.72a1.497 1.497 0 0 0 1.74 0C13.326 29.399 24.043 21.66 24 12c0-6.617-5.384-12-12-12S0 5.383 0 11.992c-.043 9.668 10.674 17.406 11.13 17.729ZM12 3c4.963 0 9 4.036 9 9.007.031 6.657-6.582 12.635-9 14.595C9.584 24.64 2.969 18.662 3 12c0-4.964 4.037-9 9-9Z" fill="#1BA0AB"/><path d="M12 18c3.309 0 6-2.691 6-6 0-3.31-2.691-6-6-6s-6 2.69-6 6c0 3.309 2.691 6 6 6Zm0-9c1.655 0 3 1.345 3 3 0 1.654-1.345 3-3 3s-3-1.346-3-3c0-1.655 1.345-3 3-3Zm-.87 20.72a1.497 1.497 0 0 0 1.74 0C13.326 29.399 24.043 21.66 24 12c0-6.617-5.384-12-12-12S0 5.383 0 11.992c-.043 9.668 10.674 17.406 11.13 17.729ZM12 3c4.963 0 9 4.036 9 9.007.031 6.657-6.582 12.635-9 14.595C9.584 24.64 2.969 18.662 3 12c0-4.964 4.037-9 9-9Z" fill="#1BA0AB"/></svg>
